icons-rebrand/svg/studio-mode-light.svg

<svg width="32" height="32" viewBox="0 0 32 32" fill="none" xmlns="http://www.w3.org/2000/svg">
<path d="M7.69202 3.5L7.69094 3.5C6.58021 3.5024 5.51552 3.94461 4.73006 4.73006C3.94462 5.51551 3.5024 6.58007 3.5 7.69081V10C3.5 10.2761 3.72386 10.5 4 10.5C4.27614 10.5 4.5 10.2761 4.5 10V7.69246C4.50196 6.84632 4.83889 6.03546 5.43717 5.43717C6.03544 4.8389 6.84643 4.50196 7.69258 4.5H10C10.2761 4.5 10.5 4.27614 10.5 4C10.5 3.72386 10.2761 3.5 10 3.5H7.69202Z" fill="#0F0F0F"/>
<path d="M22 3.5C21.7239 3.5 21.5 3.72386 21.5 4C21.5 4.27614 21.7239 4.5 22 4.5H24.3065C25.1528 4.50172 25.9639 4.83853 26.5624 5.43685C27.1609 6.03522 27.4981 6.84628 27.5 7.69255V10C27.5 10.2761 27.7239 10.5 28 10.5C28.2761 10.5 28.5 10.2761 28.5 10V7.69081C28.4976 6.57983 28.0551 5.5151 27.2694 4.72965C26.4837 3.94417 25.4179 3.5021 24.307 3.5H22Z" fill="#0F0F0F"/>
<path d="M4 21.5C4.27614 21.5 4.5 21.7239 4.5 22V24.3074C4.50196 25.1536 4.83889 25.9644 5.43717 26.5627C6.0355 27.161 6.84653 27.4981 7.69267 27.5H10C10.2761 27.5 10.5 27.7239 10.5 28C10.5 28.2761 10.2761 28.5 10 28.5H7.69094C6.58017 28.4976 5.51549 28.0552 4.73006 27.2698C3.94462 26.4844 3.5024 25.4198 3.5 24.3091V22C3.5 21.7239 3.72386 21.5 4 21.5Z" fill="#0F0F0F"/>
<path d="M28.5 22C28.5 21.7239 28.2761 21.5 28 21.5C27.7239 21.5 27.5 21.7239 27.5 22V24.3073C27.4981 25.1536 27.1609 25.9647 26.5624 26.563C25.9639 27.1614 25.1528 27.4983 24.3065 27.5H22C21.7239 27.5 21.5 27.7239 21.5 28C21.5 28.2761 21.7239 28.5 22 28.5H24.308C25.4189 28.4979 26.4837 28.0557 27.2694 27.2702C28.0551 26.4848 28.4976 25.42 28.5 24.3091V22Z" fill="#0F0F0F"/>
<path d="M18.1656 15.3643C19.2698 14.6524 20.001 13.4116 20.001 12C20.001 9.79086 18.2101 8 16.001 8C13.7918 8 12.001 9.79086 12.001 12C12.001 13.4113 12.7318 14.6518 13.8357 15.3638C12.9852 15.6636 12.1987 16.1395 11.5313 16.7694C10.323 17.91 9.59664 19.4694 9.50083 21.1281C9.50028 21.1378 9.5 21.1474 9.5 21.157C9.5 21.727 9.77951 22.1952 10.1827 22.5551C10.5786 22.9085 11.1152 23.1797 11.711 23.3866C12.9057 23.8013 14.4655 24 16 24C17.5345 24 19.0943 23.8013 20.289 23.3866C20.8848 23.1797 21.4214 22.9085 21.8173 22.5551C22.2205 22.1952 22.5 21.727 22.5 21.157H22L22.4992 21.1281C22.4034 19.4693 21.6767 17.9099 20.4685 16.7694C19.8014 16.1398 19.0154 15.6641 18.1656 15.3643ZM16.001 9C17.6578 9 19.001 10.3431 19.001 12C19.001 13.6019 17.7454 14.9106 16.1646 14.9956C16.1098 14.9942 16.055 14.9935 16 14.9935C15.9455 14.9935 15.891 14.9942 15.8367 14.9956C14.2562 14.9103 13.001 13.6017 13.001 12C13.001 10.3431 14.3441 9 16.001 9ZM15.8265 15.9963C15.8843 15.9987 15.9425 16 16.001 16C16.0592 16 16.1171 15.9988 16.1747 15.9963C17.518 16.0389 18.8017 16.5713 19.782 17.4966C20.8009 18.4583 21.4151 19.7718 21.4999 21.1698C21.4961 21.3766 21.3994 21.5877 21.1514 21.809C20.8911 22.0413 20.4902 22.2582 19.961 22.4419C18.9057 22.8082 17.4655 23 16 23C14.5345 23 13.0943 22.8082 12.039 22.4419C11.5098 22.2582 11.1089 22.0413 10.8486 21.809C10.6006 21.5877 10.5039 21.3766 10.5001 21.1698C10.585 19.7717 11.1989 18.4583 12.2177 17.4966C13.1983 16.5711 14.4827 16.0386 15.8265 15.9963Z" fill="#0F0F0F"/>
</svg>

<svg xmlns="http://www.w3.org/2000/svg" width="32" height="32" viewBox="0 0 32 32"><path d="M7.692 3.5h-.001A4.2 4.2 0 0 0 3.5 7.69V10a.5.5 0 0 0 1 0V7.692A3.2 3.2 0 0 1 7.693 4.5H10a.5.5 0 0 0 0-1H7.692ZM22 3.5a.5.5 0 0 0 0 1h2.306A3.2 3.2 0 0 1 27.5 7.693V10a.5.5 0 0 0 1 0V7.69a4.2 4.2 0 0 0-4.193-4.19H22ZM4 21.5a.5.5 0 0 1 .5.5v2.307A3.2 3.2 0 0 0 7.693 27.5H10a.5.5 0 0 1 0 1H7.69a4.2 4.2 0 0 1-4.19-4.19V22a.5.5 0 0 1 .5-.5ZM28.5 22a.5.5 0 0 0-1 0v2.307a3.2 3.2 0 0 1-3.194 3.193H22a.5.5 0 0 0 0 1h2.308a4.2 4.2 0 0 0 4.192-4.19V22ZM18.166 15.364a4 4 0 1 0-4.33 0A6.51 6.51 0 0 0 9.5 21.157c0 .57.28 1.038.683 1.398.396.354.932.625 1.528.832C12.906 23.8 14.466 24 16 24c1.535 0 3.094-.199 4.289-.613.596-.207 1.132-.479 1.528-.832.404-.36.683-.828.683-1.398H22l.5-.029a6.51 6.51 0 0 0-4.334-5.764ZM16 9a3 3 0 0 1 .164 5.996 6.44 6.44 0 0 0-.328 0A3 3 0 0 1 16 9Zm-.175 6.996a4.206 4.206 0 0 0 .349 0A5.51 5.51 0 0 1 21.5 21.17c-.004.207-.1.418-.349.639-.26.232-.66.45-1.19.633-1.055.366-2.495.558-3.961.558-1.466 0-2.906-.192-3.961-.558-.53-.184-.93-.4-1.19-.633-.248-.221-.345-.432-.349-.64a5.51 5.51 0 0 1 5.326-5.173Z"/></svg>
